!!!!SEGMENT: pl-kk--kk-i-38--020_lasso-orlando-di--tu-domine-benignus-es.krn
!!!cenid: 16xx:1270
!!!COM: Lasso, Orlando di
!!!COM-rismID: pe506
!!!CDT: ~1532-1594/06/14
!!!CNT: French-Flemish
!!!OTL: Tu Domine benignus es
!!!PDT:
!!!AGN: Sacred
!!!YEC: Copyright 2022 Narodowy Instytut Fryderyka Chopina (https://polishscores.org)
!!!YEM: License CC-BY-4.0 (https://creativecommons.org/licenses/by/4.0)
!!!SMS-siglum: PL-Kk
!!!SMS-shelfmark: Kk.I.38
!!!SMS-shelfwork: 020 W
!!!SMS-variant:
!!!SMS-altvar:
!!!NIFC-rismSourceID: 1001153210
!!!NIFC-rismChildID: 1001154416
!!!NIFC-islandoraID: pl-kk:2701
!!!URL-pdf-islandora: https://repozytorium.nifc.pl/islandora/object/pl-kk%3A2701/datastream/PDF/view
!!!URL-scan: https://polish.musicsources.pl/pl/lokalizacje/galeria/rekopisy/5992 @EN{Scan on Polish Music Sources Website} @PL{Skany w portalu Dziedzictwo Muzyki Polskiej w otwartym dostępie}
!!!IIIF:
!!!ONB-nifc: Lib. 3. Fol. 11. 2da parte (jeśli występuje), należy do utworu tytułowego, skan 0012
!!!AIN: 1 empty
!!!key:
**kern	**text
*staff1	*
*Iempty	*
*I"Baſso Ripieno.	*
*clefF4	*
*ok[b-b-]	*
*k[b-]	*
*g:	*
*M2/1	*
*met(C|)	*
=1-	=1-
!LO:TX:t=P:problem=kreska pseudotaktowa	!
!LO:TX:t=P::problem=po znakach przykluczowych&colon;xstem cue D F A	!
1r	.
0D	Tu
=2-	=2-
.	.
1.BB-X	Do-
=3-	=3-
.	.
2BB-/	-mi-
!LO:TX:t=P:problem=kreska pseudotaktowa	!
1F	-ne
=4-	=4-
1C	be-
1G	-ni-
=5-	=5-
1G	-gn(us)
!LO:TX:t=P:problem=kreska pseudotaktowa	!
1D	es.
=6-	=6-
2r	.
2GG/	et
1C	Cle-
=7-	=7-
!LO:TX:t=P:problem=kreska pseudotaktowa	!
1D	-mens!
2r	.
*2\right	*
2G\	Tu
=8-	=8-
2.F\	Do-
!LO:TX:t=P:problem=kreska pseudotaktowa	!
4E\	.
2D/	.
2D/	-mi-
=9-	=9-
2C/	-ne
!LO:TX:t=P:problem=kreska pseudotaktowa	!
2GG/	be-
4GG/	-ni-
4AA/	.
4BB-/	.
4C/	.
=10-	=10-
4D\	.
4E\	.
!LO:TX:t=P:problem=kreska pseudotaktowa	!
2F\	.
!LO:TX:t=P:problem=kreska pseudotaktowa	!
!LO:TX:t=P:global:problem=oddech/cezura na różnej wysokości	!
1C,<	-gnus
=11-	=11-
2C,</	es
2C/	et
1D	cle-
=12-	=12-
!LO:TX:t=P:problem=kreska pseudotaktowa	!
1GG	-mens
2r	.
2GG/	et
=13-	=13-
*custos:G	*
1G	su-
!LO:LB:g=original	!
2G,<\	-pra
2G\	qùa(m)
=14-	=14-
2E\	di-
2E\	-ci
1F	po-
=15-	=15-
!LO:TX:t=P:problem=kreska pseudotaktowa	!
!LO:TX:t=P:problem=wykreślony dźwięk	!
1D,<	-teſt
1AA	mi-
=16-	=16-
2.D/	-se-
4C/	.
2BB-/	.
2BB-/	-ri-
=17-	=17-
!LO:TX:t=P:problem=kreska pseudotaktowa	!
1AA	-cors!
2r	.
2D/	et
=18-	=18-
1C	su-
2GG/	-pra
!LO:TX:t=P:problem=kreska pseudotaktowa	!
2C/	qua(m)
=19-	=19-
2BB-/	di-
2BB-/	-ci
4FF/	po-
4GG/	.
4AA/	.
4BB-/	.
=20-	=20-
!LO:TX:t=P:problem=kreska pseudotaktowa	!
1C	.
2GG,</	-test
2D\	mi-
=21-	=21-
2C/	-ſe-
2GG/	-ri-
!LO:TX:t=P:problem=kreska pseudotaktowa	!
1AA	-cors
=22-	=22-
1r	.
1GG	in
=23-	=23-
1C	o-
2BB-,</	-mnes
2BB-/	qui
=24-	=24-
2.B-\	tu-
4A\	.
4G\	.
4F\	.
!LO:TX:t=P:problem=kreska pseudotaktowa	!
2E-X\	.
=25-	=25-
!LO:LB:g=original	!
2D,<\	-um
2D\	im-
1C	-plo-
=26-	=26-
2GG,</	-rant
2GG/	au-
2.C/	-xi-
4C/	-li-
=27-	=27-
!LO:TX:t=P:problem=kreska pseudotaktowa	!
1BB-	-um
!LO:TX:t=P:problem=kreska pseudotaktowa	!
1r	.
=28-	=28-
1C	in
!LO:TX:t=P:problem=kreska pseudotaktowa	!
1D	o-
=29-	=29-
2GG,</	-mnes
2GG/	qui
2.C/	tu-
4BB-/	.
=30-	=30-
2AA,</	-um
2AA/	im-
1A	-plo-
=31-	=31-
!LO:TX:t=P:problem=kreska pseudotaktowa	!
1AA,<	-rant
2r	.
2D\	in
=32-	=32-
1BB-	o-
2GG,</	-(mn)es
2G\	qui
=33-	=33-
1D	tu-
2AA,</	-um
2D/	im-
=34-	=34-
1GG	-plo-
!LO:TX:t=P:problem=kreska pseudotaktowa	!
1AA	-rant
=35-	=35-
2r	.
*	*ij
2D/	im-
1BB-	-plo-
=36-	=36-
2GG,</	-rant
*	*Xij
2G\	au-
2.G\	-xi-
4GG/	-li-
=37-	=37-
0D;	-um
=38||-	=38||-
*M2/1	*
*met(C|)	*
!LO:TX:a:B:t=2da\nparte	!
!LO:LB:g=original	!
00r	.
=39-	=39-
.	.
=40-	=40-
!LO:TX:t=P:problem=kreska pseudotaktowa	!
1r	.
1.D	Re-
=41-	=41-
.	.
!LO:TX:t=P:problem=kreska pseudotaktowa	!
2D\	-spi-
4F\	-ce
4Eny\	.
4D/	.
4C/	.
=42-	=42-
2BB-,</	.
2.GG/	me
4AA/	.
4BB-/	.
4C/	.
=43-	=43-
!LO:TX:t=P:problem=kreska pseudotaktowa	!
1D	.
!LO:TX:t=P:problem=kreska pseudotaktowa	!
0r	.
=44-	=44-
.	.
1D	vi-
=45-	=45-
2C,</	-de
2C/	hu-
2E-X\	-mi-
!LO:TX:t=P:problem=kreska pseudotaktowa	!
2E-\	-li-
=46-	=46-
2BB-/	-ta-
2D\	-tem
1F	me-
=47-	=47-
!LO:TX:t=P:problem=kreska pseudotaktowa	!
1C	-am!
1r	.
=48-	=48-
1D	vi-
2E-X\	-de
2E-\	hu-
=49-	=49-
2C/	-mi-
2C/	-li-
1D	-ta-
=50-	=50-
!LO:TX:t=P:problem=kreska pseudotaktowa	!
1GG	-tem
1C	me-
=51-	=51-
!LO:TX:t=P:problem=kreska pseudotaktowa	!
1D	-am
!LO:LB:g=original	!
2r	.
1A\	et
=52-	=52-
.	.
2G\	la-
2Eny\	-bo-
2F\	-rem
=53-	=53-
1D	me-
!LO:TX:t=P:problem=kreska pseudotaktowa	!
1AA	-u(m)
=54-	=54-
2r	.
*	*ij
1D	et
2BB-/	la-
=55-	=55-
2AA/	-bo-
!LO:TX:t=P:problem=kreska pseudotaktowa	!
2AA/	-rem
*lig	*
1GG	me-
=56-	=56-
1D	.
*Xlig	*
!LO:TX:t=P:problem=kreska pseudotaktowa	!
1AA	-u(m)
*	*Xij
=57-	=57-
1r	.
1D	et
=58-	=58-
!LO:TX:t=P:problem=kreska pseudotaktowa	!
1AA	la-
2BB-/	-bo-
2BB-/	-rem
=59-	=59-
1GG	me-
!LO:TX:t=P:problem=kreska pseudotaktowa	!
1AA	-um!
=60-	=60-
1r	.
1D	E-
=61-	=61-
2C,</	-de
1C	Si-
!LO:TX:t=P:problem=kreska pseudotaktowa	!
2C/	-gnu(m)
=62-	=62-
2.G\	a-
4F\	.
2E-X\	.
2E-\	-li-
=63-	=63-
*custos:G	*
!LO:TX:t=P:problem=kreska pseudotaktowa	!
1D,<	-quod
!LO:LB:g=original	!
2.G\	pri-
4G\	-sti-
=64-	=64-
2G\	-ni
2D\	Fa-
1C	-vo-
=65-	=65-
!LO:TX:t=P:problem=kreska pseudotaktowa	!
1GG	-ris,
1r	.
=66-	=66-
1BB-	er-
2F\	-ga
2G\	me
=67-	=67-
*lig	*
1C	Tu-
1D	.
*Xlig	*
=68-	=68-
2GG,</	-i.
1G	Quo-
2G\	-ni-
=69-	=69-
!LO:TX:t=P:problem=kreska pseudotaktowa	!
1D	-am
!LO:TX:t=P:problem=kreska pseudotaktowa	!
1r	.
=70-	=70-
*	*ij
2.AA/	Quo-
4AA/	-ni-
!LO:TX:t=P:problem=kreska pseudotaktowa	!
1BB-	-am
*	*Xij
=71-	=71-
1AA	in-
2GG,</	-ops
2G\	et
=72-	=72-
2.F\	pau-
!LO:TX:t=P:problem=kreska pseudotaktowa	!
4G\	.
2A\	-per
2D,</	.
=73-	=73-
2C/	sum
2GG/	e-
!LO:TX:t=P:problem=kreska pseudotaktowa	!
1AA	-go!
=74-	=74-
!LO:LB:g=original	!
2r	.
2D\	et
1E-X	pau-
=75-	=75-
!LO:TX:t=P:problem=kreska pseudotaktowa	!
1D	-per
!LO:TX:t=P:problem=kreska pseudotaktowa	!
1r	.
=76-	=76-
1D	et
1E-X	pau-
=77-	=77-
!LO:TX:t=P:problem=kreska pseudotaktowa	!
1D	-per
1C,<	sum
=78-	=78-
1BB-	e-
2F,<\	-go,
!LO:TX:t=P:problem=kreska pseudotaktowa	!
2C/	et
=79-	=79-
1C	pau-
!LO:TX:t=P:problem=kreska pseudotaktowa	!
1D	-per
=80-	=80-
*lig	*
1G	sum
1GG	.
*Xlig	*
=81-	=81-
0C	E-
=82-	=82-
0GG;	-go.
=-	=-
*-	*-
!!!RDF**kern: < = below
!!!RDF**kern: > = above
!!!ENC: Marta Chmielewska
!!!END: 2021-07-30
!!!ENC: Katarzyna Serwa
!!!END: 2021-07-04
